X:15
T:Boulavogue
R:waltz
D:De Danann: Ballroom
Z:id:hn-waltz-15
M:3/4
L:1/8
K:G
D2 | G4D2 | G2B2d2 | g4f2 | e2g2e2 | d4e2 | B3AG2 | A3BAG | E4D2 |
G4D2 | G2B2d2 | g4f2 | eg3e2 | d4e2 | B3AG2 | A4G2 | G3ABc ||
d4B2 | d2e2f2 | g4f2 | e2g2e2 | d4e2 | B3AG2 | A3BAG | E4D2 |
G4D2 | G2B2d2 | g4f2 | e2g2e2 | d4e2 | B3AG2 | A4G2 | G4 ||  

